public/static/img/market/refresh_mini.svg

<svg xmlns="http://www.w3.org/2000/svg" viewBox="0 0 20 20" fill="none"><path d="M10 17.96C5.61004 17.96 2.04004 14.39 2.04004 10C2.04004 9.83004 2.05004 9.66004 2.06004 9.49004L3.46004 9.58004C3.45004 9.72004 3.45004 9.86004 3.45004 10C3.45004 13.62 6.39004 16.56 10.01 16.56C11.7 16.56 13.3 15.92 14.52 14.76L15.48 15.78C13.99 17.19 12.05 17.96 10 17.96ZM17.96 10H16.56C16.56 9.77004 16.55 9.54004 16.52 9.31004C16.17 5.96004 13.37 3.44004 9.99004 3.44004C8.67004 3.44004 7.41004 3.83004 6.32004 4.56004L5.55004 3.40004C6.86004 2.51004 8.40004 2.04004 10 2.04004C14.09 2.04004 17.5 5.10004 17.92 9.17004C17.95 9.44004 17.96 9.72004 17.96 10Z" fill="#8F92A1"/><path d="M2.73983 5.68L0.54983 9.6C0.48983 9.7 0.56983 9.83 0.67983 9.83H5.04983C5.16983 9.83 5.23983 9.71 5.17983 9.6L2.99983 5.68C2.93983 5.57 2.78983 5.57 2.73983 5.68ZM16.9998 13.2L14.8098 9.28C14.7498 9.18 14.8298 9.05 14.9398 9.05H19.3098C19.4298 9.05 19.4998 9.17 19.4398 9.28L17.2598 13.2C17.2098 13.3 17.0598 13.3 16.9998 13.2ZM5.27983 3.95C5.27983 4.13565 5.35358 4.3137 5.48486 4.44497C5.61613 4.57625 5.79418 4.65 5.97983 4.65C6.16548 4.65 6.34353 4.57625 6.47481 4.44497C6.60608 4.3137 6.67983 4.13565 6.67983 3.95C6.67983 3.76435 6.60608 3.5863 6.47481 3.45503C6.34353 3.32375 6.16548 3.25 5.97983 3.25C5.79418 3.25 5.61613 3.32375 5.48486 3.45503C5.35358 3.5863 5.27983 3.76435 5.27983 3.95ZM14.2298 15.33C14.2298 15.5157 14.3036 15.6937 14.4349 15.825C14.5661 15.9563 14.7442 16.03 14.9298 16.03C15.1155 16.03 15.2935 15.9563 15.4248 15.825C15.5561 15.6937 15.6298 15.5157 15.6298 15.33C15.6298 15.1443 15.5561 14.9663 15.4248 14.835C15.2935 14.7038 15.1155 14.63 14.9298 14.63C14.7442 14.63 14.5661 14.7038 14.4349 14.835C14.3036 14.9663 14.2298 15.1443 14.2298 15.33Z" fill="#8F92A1"/></svg>

<svg xmlns="http://www.w3.org/2000/svg" viewBox="0 0 20 20" fill="none"><path d="M10 17.96c-4.39 0-7.96-3.57-7.96-7.96 0-.17.01-.34.02-.51l1.4.09c-.01.14-.01.28-.01.42 0 3.62 2.94 6.56 6.56 6.56 1.69 0 3.29-.64 4.51-1.8l.96 1.02A7.927 7.927 0 0 1 10 17.96ZM17.96 10h-1.4c0-.23-.01-.46-.04-.69a6.536 6.536 0 0 0-6.53-5.87c-1.32 0-2.58.39-3.67 1.12L5.55 3.4A7.887 7.887 0 0 1 10 2.04 7.935 7.935 0 0 1 17.96 10Z" fill="#8F92A1"/><path d="M2.74 5.68.55 9.6c-.06.1.02.23.13.23h4.37c.12 0 .19-.12.13-.23L3 5.68c-.06-.11-.21-.11-.26 0ZM17 13.2l-2.19-3.92c-.06-.1.02-.23.13-.23h4.37c.12 0 .19.12.13.23l-2.18 3.92c-.05.1-.2.1-.26 0ZM5.28 3.95a.7.7 0 1 0 1.4 0 .7.7 0 0 0-1.4 0Zm8.95 11.38a.7.7 0 1 0 1.4 0 .7.7 0 0 0-1.4 0Z" fill="#8F92A1"/></svg>
